X: 2
T: Seán Sa Cheo
R: reel
M: 4/4
L: 1/8
K: Ador
|: B2 Ac BEGA | BABG ADFA | EBBA BcdB | AcdB ADFA :|||: G~E3 GEFA | G~E3 dBcA | G~E3 BcdB |1 cedB ADFA :|2 cedB A2 (3Bcd ||| e2 ge fege | efge B2 Bc | d2 fd Adfd | (3ddd fd BcdB || e2 ge fege | efge ~B3c | dcdf edBc | dcdB ADFA ||


Tune 177	Setting 12825

